X: 2
T: Ynys Mn
M: 2/4
L: 1/8
R: polka
K: G Major
|: G2 D>D | B,/C/D G>B | cB A>G | AG FD/F/ |
GG DD/C/ | B,D GD | Bc/B/ Ad | G4 :|
|: B2 G>G | A2 F>F | GA/B/ c>B | AG F (3D/E/F/ |
G2 D2 | B,C/D/ G2 | B>B AG/F/ | G4 :|
